images/loader.svg

<svg width="46" height="43" viewBox="0 0 46 43" fill="none" xmlns="http://www.w3.org/2000/svg">
<g clip-path="url(#clip0_1074_336)">
<path fill-rule="evenodd" clip-rule="evenodd" d="M0.866298 9.74442C0.511252 10.9674 1.93144 12.6045 4.65345 14.1036C5.71859 11.1449 7.82914 8.75818 11.0048 8.34396C15.3443 7.77195 17.4548 9.44855 21.0645 8.58066C24.319 7.79167 26.7649 4.28066 32.2287 2.72241C32.8599 2.54488 33.4911 2.46598 34.1223 2.46598C35.286 1.42057 35.72 -0.0390625 35.72 -0.0390625L35.5424 1.26277C35.1677 3.92562 33.0966 5.99672 30.4337 6.37149L29.1319 6.56874L30.4337 6.74626C33.0966 7.12103 35.1677 9.21185 35.5424 11.855L35.72 13.1568L35.9172 11.855C36.292 9.21185 38.3631 7.12103 41.0259 6.74626L42.3278 6.56874C42.3278 6.56874 41.8346 6.84488 41.3415 7.45635C42.3869 9.94167 42.3672 13.1963 40.4539 16.7467C38.3236 20.7508 36.7654 23.8476 35.6411 26.5105C31.4791 26.4316 25.9168 25.4059 19.447 23.5912C4.59428 19.4687 -2.21077 11.6577 0.866298 9.74442ZM26.4493 13.1568L26.8635 13.216C27.692 13.3343 28.3429 13.9852 28.4613 14.8137L28.5204 15.2082L28.5796 14.8137C28.6979 13.9852 29.3489 13.3343 30.1773 13.216L30.5718 13.1568L30.1773 13.0976C29.3489 12.9793 28.6979 12.3284 28.5796 11.4999L28.5204 11.0857L28.4613 11.4999C28.3429 12.3284 27.692 12.9793 26.8635 13.0976L26.4493 13.1568Z" fill="white"/>
<path d="M43.4736 23.2933C47.1621 30.7887 37.0827 33.0768 19.1135 27.5933C13.7878 25.9759 8.1465 23.2736 3.96484 20.4727C4.08319 21.4194 4.30016 22.3268 4.61576 23.1552C7.31805 30.2759 8.02815 33.6291 7.89007 38.7772C7.752 44.3594 12.9199 43.0378 14.991 36.8837C16.0167 33.8263 17.8511 33.0965 18.9951 32.9387C21.5199 33.0768 22.3681 34.6548 23.7685 38.5603C25.8988 44.4777 32.1713 44.4185 32.763 37.6727C32.8814 36.5681 32.9997 35.5029 33.1772 34.4772C35.8203 34.6942 38.4043 34.497 40.7713 33.7672C46.5309 31.9525 46.7873 26.1337 43.4736 23.2933Z" fill="white"/>
<path d="M40.7699 6.33276C39.9809 5.03093 38.8566 4.00524 37.5942 3.3346C36.8249 2.76258 35.9965 1.55937 35.957 1.48047C36.391 3.94606 38.3043 5.87909 40.7699 6.33276Z" fill="white"/>
</g>
<defs>
<clipPath id="clip0_1074_336">
<rect width="45.7615" height="43" fill="white"/>
</clipPath>
</defs>
</svg>

<svg xmlns="http://www.w3.org/2000/svg" width="46" height="43" fill="none" viewBox="0 0 46 43"><g fill="#fff" clip-path="url(#a)"><path fill-rule="evenodd" d="M.866 9.744c-.355 1.223 1.065 2.86 3.787 4.36 1.066-2.96 3.176-5.346 6.352-5.76 4.34-.572 6.45 1.105 10.06.237 3.254-.79 5.7-4.3 11.164-5.859a7 7 0 0 1 1.893-.256C35.286 1.421 35.72-.039 35.72-.039l-.178 1.302a5.984 5.984 0 0 1-5.108 5.108l-1.302.198 1.302.177a6.004 6.004 0 0 1 5.108 5.109l.178 1.302.197-1.302a6.005 6.005 0 0 1 5.109-5.109l1.302-.177s-.493.276-.986.887c1.045 2.486 1.025 5.74-.888 9.29-2.13 4.005-3.689 7.102-4.813 9.765-4.162-.08-9.724-1.105-16.194-2.92C4.594 19.47-2.211 11.658.867 9.744m25.583 3.413.414.059c.829.118 1.48.77 1.598 1.598l.06.394.059-.394a1.88 1.88 0 0 1 1.597-1.598l.395-.06-.395-.058A1.88 1.88 0 0 1 28.58 11.5l-.06-.414-.059.414a1.88 1.88 0 0 1-1.598 1.598z" clip-rule="evenodd"/><path d="M43.474 23.293c3.688 7.496-6.391 9.784-24.36 4.3-5.326-1.617-10.968-4.32-15.15-7.12.12.946.336 1.854.652 2.682 2.702 7.12 3.412 10.474 3.274 15.622-.138 5.582 5.03 4.26 7.101-1.893 1.026-3.058 2.86-3.788 4.004-3.945 2.525.138 3.373 1.716 4.773 5.621 2.13 5.918 8.403 5.858 8.995-.887.118-1.105.237-2.17.414-3.196 2.643.217 5.227.02 7.594-.71 5.76-1.815 6.016-7.633 2.703-10.474M40.77 6.333a8.26 8.26 0 0 0-3.176-2.998c-.77-.572-1.598-1.776-1.637-1.855a5.98 5.98 0 0 0 4.813 4.853"/></g><defs><clipPath id="a"><path fill="#fff" d="M0 0h45.761v43H0z"/></clipPath></defs></svg>
